X:455
T:Sergeant Early's Dream
T:Sgt. Early's Dream
R:reel
Z:id:hn-reel-455
M:C|
K:Ddor
dc|AFDE FAcA|GECD ~E3F|DA,DE FEFG|Acde fedc|
AFDE FAcA|GECD ~E3F|DA,DE FAcA|GFEF D2:|
|:FG|Add^c ~d3e|f2ed =cAGF|ECEG cBcd|ecdc AcGc|
Add^c ~d3e|f2ed cAGc|AE~E2 cE~E2|CDEC D2:|
